X: 2017
T: Minuet Royal.
%R: minuet, waltz
B: Henry Playford "Apollo's Banquet", London 1687 (5th Edition)
F: https://archive.org/details/apollosbanquetco01rugg
Z: 2017 John Chambers <jc:trillian.mit.edu>
N: Note: 3-bar phrases.
M: 3/4
L: 1/8
K: C
% - - - - - - - - - -
|:\
c3de2 | d2g4 | e4c2 |\
c'3ga2 | eff3(e/f/) | g6 ::\
d3ef2 | e3fg2 | g4f2 |
e3dcB | A2d4 | B4G2 |\
g3agf | e2a4 | f4d2 |\
g3cd2 | A2B4 | Hc6 |]
% - - - - - - - - - -

%%sep 1 1 500
%%sep 1 1 500

